!!!OTL: Retzte Rose.
!!!OTL-incipit:LETZTE ROSE WIE BLUEHST DU SO EINSAM
!!!COM: Volksthuemlich
!!!ARE: Europa, Mitteleuropa, Deutschland; Ireland
!!!SCT: F0286
!!!TXL: @@DE
!!!YEM: Copyright 1995, estate of Helmut Schaffrath.
**kern	**text
*ICvox	*
*M3/4	*
*k[b-]	*
*F:	*
!LO:TX:a:t=Ursprünglich irisches Volkslied.	!
{8.f	1._Letʒ-
16g	-te
=1	=1
4a	Ro-
(8.ffL	-ſe,
16eeJ)	.
(>8eeq	.
8.dd/L)	wie
16ccJ	.
=2	=2
4cc	blühſt
8a	du
8r}	.
{8.fL	ſo
16gJ	.
=3	=3
(8a	ein-
4cc/)	.
8a	-ſam
(8aq	.
8.g)	und
16f	al-
=4	=4
2f}	-lein!
{8.f	Längſt
16g	ver-
=5	=5
(4a	-wel-
8.ff/L)	.
16eeJ	.
(>8eeq	.
8.dd)	-ket,
16cc	ge-
=6	=6
4cc	-ſtor-
8a	-ben
8r}	.
{8.f	ſind
16g	ſchon
=7	=7
(8a	all'
4cc/)	.
8a	die
(8aq	.
8.g)	Schweſtern
16f	.
=8	=8
2f}	dein.
{8.cc/L	Kein
16aJ	.
=9	=9
(4.ff	Blüm-
8ee)	-chen
8.dd	hau-
16cc	-chet
=10	=10
4cc	Bal-
8a	-ſam
8r}	.
{8.cc/L	mit
16aJ	.
=11	=11
(4.ff	lieb-
8ee)	.
8dd	-li-
8cc#	-chem
=12	=12
8.ddLSS	Duft,
16eeJ	.
4ff;}	.
{8.fL	kein
16gJ	.
=13	=13
(4a	Blätt-
8.ff)	.
16ee	-chen
(>8eeq	.
8.dd)	ſich
16cc	mehr
=14	=14
4cc	re-
8a	-get
8r}	.
{8.fL	in
16gJ	.
=15	=15
(8a	ſtür-
4cc)	.
8a	-miſch
(>8aq	.
8.g)	rau-
16f	-her
=16	=16
2f}	Luft.
==	==
!!!AGN: Jugend - Lied, Jahreszeiten, Winter
!!!ONB: ESAC (Essen Associative Code) Database: FINK
!!!AMT: simple triple
!!!AIN: vox
!!!EED: Helmut Schaffrath
!!!EEV: 1.0
!!!RDF**kern: >= above
!!Text: Irisches Volkslied
!!!source: Musikalischer Hausschatz der Deutschen. Eine Sammlung von über 1000 Liedern und Gesängen mit Singstimmen und Klavierbegleitung. Leipzig, Litterarisches Verlags-Haus.
!!!page: 171
!!!ENC: Anna Maria Matuszewska
!!!EEV: 2025/03/13
*-	*-
